_includes/icons/ios-log.svg

<svg fill="#666" height="50" viewBox="0 0 50 50" width="50" xmlns="http://www.w3.org/2000/svg"><path d="m7 2v46h36v-1-31.589844l-13.816406-13.410156zm2 2h19v13h13v29h-32zm21 1.5800781 9.707031 9.4199219h-9.707031zm-5.898438 17.8554689c-2.234999 0-3.330078 2.384531-3.330078 5.144531 0 2.775.900313 5.205078 3.195313 5.205078 1.92 0 3.269531-1.545468 3.269531-5.355468 0-2.31-.688765-4.993141-3.134766-4.994141zm8.408204.029297c-2.145 0-4.246016 1.530078-4.291016 5.205078-.03 1.74.434687 3.240078 1.304688 4.080078.675.675 1.546171 1.005859 2.701171 1.005859.735 0 1.66461-.181328 2.09961-.361328-.001 0-.001-5.40039 0-5.40039h-2.714844v1.605468h.900391v2.445313c-.076.03-.212579.044922-.392578.044922-.915001 0-1.857422-.870782-1.857422-3.300782 0-2.639999 1.063437-3.554687 2.398437-3.554687.495 0 .869297.076563 1.154297.226563l.345703-1.695313c-.314-.15-.883437-.300781-1.648437-.300781zm-16.833985.091797v10.109375h4.560547v-1.664063h-2.595703v-8.445312zm8.351563 1.58789c.884 0 1.15625 1.605 1.15625 3.375 0 2.055-.316625 3.554688-1.140625 3.554688-.794 0-1.230469-1.169844-1.230469-3.464844 0-2.174.433844-3.463844 1.214844-3.464844z"/></svg>

<svg xmlns="http://www.w3.org/2000/svg" viewBox="0 0 50 50" width="50" height="50" fill="#666"><path style="line-height:normal;text-indent:0;text-align:start;text-decoration-line:none;text-decoration-style:solid;text-decoration-color:#000;text-transform:none;block-progression:tb;isolation:auto;mix-blend-mode:normal" d="M 7 2 L 7 48 L 43 48 L 43 47 L 43 15.410156 L 29.183594 2 L 7 2 z M 9 4 L 28 4 L 28 17 L 41 17 L 41 46 L 9 46 L 9 4 z M 30 5.5800781 L 39.707031 15 L 30 15 L 30 5.5800781 z M 24.101562 23.435547 C 21.866563 23.435547 20.771484 25.820078 20.771484 28.580078 C 20.771484 31.355078 21.671797 33.785156 23.966797 33.785156 C 25.886797 33.785156 27.236328 32.239688 27.236328 28.429688 C 27.236328 26.119688 26.547563 23.436547 24.101562 23.435547 z M 32.509766 23.464844 C 30.364766 23.464844 28.26375 24.994922 28.21875 28.669922 C 28.18875 30.409922 28.653437 31.91 29.523438 32.75 C 30.198438 33.425 31.069609 33.755859 32.224609 33.755859 C 32.959609 33.755859 33.889219 33.574531 34.324219 33.394531 C 34.323219 33.394531 34.323219 27.994141 34.324219 27.994141 L 31.609375 27.994141 L 31.609375 29.599609 L 32.509766 29.599609 L 32.509766 32.044922 C 32.433766 32.074922 32.297187 32.089844 32.117188 32.089844 C 31.202187 32.089844 30.259766 31.219062 30.259766 28.789062 C 30.259766 26.149063 31.323203 25.234375 32.658203 25.234375 C 33.153203 25.234375 33.5275 25.310938 33.8125 25.460938 L 34.158203 23.765625 C 33.844203 23.615625 33.274766 23.464844 32.509766 23.464844 z M 15.675781 23.556641 L 15.675781 33.666016 L 20.236328 33.666016 L 20.236328 32.001953 L 17.640625 32.001953 L 17.640625 23.556641 L 15.675781 23.556641 z M 24.027344 25.144531 C 24.911344 25.144531 25.183594 26.749531 25.183594 28.519531 C 25.183594 30.574531 24.866969 32.074219 24.042969 32.074219 C 23.248969 32.074219 22.8125 30.904375 22.8125 28.609375 C 22.8125 26.435375 23.246344 25.145531 24.027344 25.144531 z"/></svg>
